X:29
T:G E. WHG.029
T:?
R:Jig
S:W.H.Giles MS,Bampton,Oxfordshire,1839p27
O:England
H:donated by Mrs W.R.Kettlewell to VWML,Apr 1927.
A:Bampton, Oxfordshire
N:This tune is untitled, but the letters G E appear above bar 1.
Z:PJHeadford – VMP 2009
M:6/8
L:1/8
Q:3/8=100
K:C
c/d/|e>fe d>ge|c>Bc dBc {A}|G>AF E>Gc|c>de d2c/d/|
e>fe dge|cBc d>Bc {A}|G>AF E<Gc|d>AB c2||
e|e>cd e>af|ecd e>cd|dcB dge|dcA {A} G2G/c/|
ced ecd|ege f<de|f>ga g>ec|d>AB c/B/c/A/c/d/|
G>AF E<G c/d/|e>ge f<de|f>ga g>ec|d>AB c2|]

